X:160
T: Knocknagree
S: "Johnny O'Leary of Sliabh Luachra" (#27)
Z: B.Black
Q: 280
L: 1/8
M: 2/4
R: polka
K: A
C>E FE|CE EF/E/|CE Ac|B/c/B/A/ FA|
CE FE|CE EF/E/|ed/e/ Ac|Bc/B/ A2 :|
ef/e/ Ac/e/|fe f/g/a/f/|ec/e/ fc|ec Bc|
ef/e/ Ac/e/|fe f/g/a/f/|ec BA/B/|cA A2 :|
K:G %Transposed from A
B,>D ED|B,D DE/D/|B,D GB|A/B/A/G/ EG|
B,D ED|B,D DE/D/|dc/d/ GB|AB/A/ G2 :|
de/d/ GB/d/|ed e/f/g/e/|dB/d/ eB|dB AB|
de/d/ GB/d/|ed e/f/g/e/|dB AG/A/|BG G2 :|
